src/static/logos/cloudacademy.svg

<?xml version="1.0" encoding="UTF-8" standalone="no"?>
<svg width="256px" height="278px" viewBox="0 0 256 278" version="1.1" xmlns="http://www.w3.org/2000/svg" xmlns:xlink="http://www.w3.org/1999/xlink" preserveAspectRatio="xMidYMid">
	<g>
		<path d="M228.1289,133.7355 C243.0019,124.5485 252.3069,107.2305 249.7609,87.9535 C247.0859,67.6955 230.8909,51.2925 210.6709,48.3505 C200.8179,46.9165 192.1449,48.5405 184.0349,52.3425 C182.3019,53.1545 180.6429,55.3125 176.6679,53.9135 C172.8209,52.5585 173.2429,47.8185 173.1829,47.1385 C170.9919,22.2245 149.1209,2.9575 123.2099,4.9785 C102.9849,6.5565 85.8589,21.5845 81.5709,41.4125 C80.8709,44.6465 80.5339,47.8295 80.5129,50.9385 C80.4879,54.4855 76.7199,56.6625 73.6259,54.9275 C64.9539,50.0665 54.5729,47.9025 43.5849,49.6235 C23.5629,52.7585 7.6659,69.0865 5.0289,89.1805 C2.4789,108.6175 11.9679,126.0945 27.0729,135.2165 C30.5079,137.2905 30.5149,142.1305 27.0879,144.2165 C12.7209,152.9655 3.4769,169.2865 4.9279,187.6465 C6.6589,209.5615 24.0559,227.5685 45.9049,230.0025 C56.2119,231.1515 65.9119,228.8995 74.0729,224.2475 C77.5719,222.2525 81.8689,224.8195 81.9969,228.8445 C82.0859,231.6585 82.4429,234.5345 83.1109,237.4595 C87.9279,258.5375 107.0229,273.9645 128.6449,273.8525 C154.1719,273.7205 174.8259,252.9865 174.8259,227.4275 L174.8259,227.3115 C174.8149,223.4305 178.8539,220.7945 182.2329,222.7045 C190.4059,227.3265 200.1099,229.5455 210.4189,228.3575 C232.2049,225.8475 249.5079,207.8585 251.2239,185.9955 C252.6919,167.2935 243.0629,150.7065 228.2279,142.0915 C225.0199,140.2285 224.9719,135.6855 228.1289,133.7355" fill="#FFFFFF"></path>
		<path d="M126.9828,0.6864 L126.9828,0.6864 C125.5448,0.6864 124.0838,0.7434 122.6418,0.8564 C98.9468,2.7044 78.8818,20.2554 73.8468,43.5354 C73.6418,44.4864 73.4608,45.4424 73.3058,46.4024 C67.2688,44.1524 60.8418,42.9834 54.3628,42.9834 C51.4878,42.9834 48.5688,43.2114 45.6878,43.6634 C22.1638,47.3474 3.5688,66.4224 0.4688,90.0504 C-2.0362,109.1364 5.6328,127.9084 20.2838,139.7144 C6.4228,150.9144 -1.1172,168.1884 0.3178,186.3454 C2.3638,212.2334 22.5618,233.1074 48.3458,235.9814 C50.3968,236.2094 52.4728,236.3254 54.5178,236.3254 C61.4638,236.3254 68.3408,234.9844 74.7448,232.4094 C74.9158,233.4254 75.1168,234.4374 75.3458,235.4424 C80.9818,260.1014 103.2918,278.0004 128.3928,278.0004 L128.6668,277.9994 C155.9308,277.8584 178.5478,257.4654 182.2318,231.1794 C188.3978,233.5414 194.9818,234.7704 201.6238,234.7704 C203.7368,234.7704 205.8818,234.6464 208.0008,234.4024 C233.6878,231.4434 253.8018,210.5654 255.8268,184.7604 C257.2728,166.3334 249.5828,148.9764 235.4398,137.8114 C249.5188,125.9624 256.8358,107.5204 254.3728,88.8684 C251.2198,64.9934 232.3708,45.8964 208.5348,42.4294 C205.8098,42.0324 203.0808,41.8314 200.4238,41.8314 C193.5818,41.8314 187.0518,43.1024 180.5598,45.7074 C176.1168,19.7424 153.8338,0.6864 126.9828,0.6864 M126.9828,10.6384 C150.1878,10.6384 169.2378,28.4314 171.2318,51.1184 C171.2898,51.7694 170.8868,56.3044 174.5668,57.6004 C175.4598,57.9144 176.2298,58.0414 176.9078,58.0414 C179.1188,58.0414 180.3468,56.6924 181.6158,56.0974 C187.4918,53.3434 193.6738,51.7834 200.4238,51.7834 C202.5888,51.7834 204.8128,51.9444 207.1018,52.2774 C226.4498,55.0924 241.9458,70.7884 244.5058,90.1714 C246.9418,108.6164 238.0378,125.1864 223.8068,133.9774 C220.7868,135.8434 220.8318,140.1904 223.9018,141.9734 C238.0968,150.2164 247.3098,166.0864 245.9058,183.9824 C244.2638,204.9014 227.7068,222.1144 206.8618,224.5154 C205.0948,224.7194 203.3488,224.8184 201.6238,224.8184 C193.7198,224.8184 186.3118,222.7374 179.8918,219.1074 C179.1508,218.6884 178.3768,218.4974 177.6238,218.4974 C175.0908,218.4974 172.7968,220.6524 172.8038,223.5154 C172.8048,223.5524 172.8048,223.5894 172.8048,223.6254 C172.8048,248.0814 153.0428,267.9214 128.6168,268.0474 L128.3928,268.0474 C107.7968,268.0474 89.6408,253.3204 85.0478,233.2244 C84.4088,230.4254 84.0668,227.6744 83.9818,224.9824 C83.8888,222.0464 81.4788,219.9214 78.8548,219.9214 C78.0358,219.9214 77.1968,220.1284 76.3998,220.5824 C69.9448,224.2624 62.4828,226.3734 54.5178,226.3734 C52.8488,226.3734 51.1568,226.2804 49.4478,226.0904 C28.5418,223.7604 11.8958,206.5314 10.2388,185.5614 C8.8508,167.9944 17.6958,152.3774 31.4428,144.0064 C34.7218,142.0104 34.7148,137.3794 31.4288,135.3954 C16.9758,126.6664 7.8958,109.9434 10.3358,91.3454 C12.8588,72.1184 28.0698,56.4954 47.2278,53.4954 C49.6418,53.1174 52.0228,52.9354 54.3628,52.9354 C62.2148,52.9354 69.5798,54.9874 75.9728,58.5714 C76.6848,58.9704 77.4338,59.1534 78.1618,59.1534 C80.4598,59.1534 82.5438,57.3314 82.5618,54.7544 C82.5828,51.7794 82.9048,48.7334 83.5748,45.6394 C87.6768,26.6674 104.0648,12.2874 123.4158,10.7784 C124.6148,10.6844 125.8038,10.6384 126.9828,10.6384" fill="#CCCCCC"></path>
		<path d="M124.3495,193.359 L114.5805,172.414 C113.3275,169.727 113.5575,166.69 114.9185,164.055 C116.0545,161.854 116.3475,159.171 115.7725,156.404 C114.8705,152.056 111.3715,148.53 107.0235,147.631 C99.6345,146.103 93.1345,151.704 93.1345,158.823 C93.1345,163.514 96.4525,168.137 100.8845,169.964 C103.7225,171.83 104.3825,172.414 105.5355,175.942 L111.1225,199.135 C111.9755,202.678 111.0015,206.346 108.7205,209.188 C104.2405,214.772 102.0875,222.299 103.7515,230.314 C105.7835,240.1 113.7755,247.869 123.6055,249.674 C139.6185,252.614 153.5735,240.398 153.5735,224.922 C153.5735,212.863 144.4505,202.322 133.2435,200.212 C129.3485,199.478 126.0245,196.951 124.3495,193.359 Z M173.3092,169.4723 L150.2902,167.4143 C147.3362,167.1503 144.8252,165.4273 143.2282,162.9293 C141.8952,160.8413 139.7202,159.2423 137.0382,158.3513 C132.8252,156.9513 128.0192,158.2083 125.0592,161.5183 C120.0312,167.1433 121.6152,175.5763 127.7732,179.1473 C131.8322,181.5013 137.4952,180.9513 141.2992,178.0343 C144.3372,176.5153 145.1732,176.2363 148.8032,177.0093 L171.6702,183.8123 C175.1632,184.8513 177.8472,187.5343 179.1612,190.9333 C181.7432,197.6103 187.1752,203.2493 194.9432,205.8313 C204.4272,208.9823 215.1582,205.9663 221.6512,198.3683 C232.2282,185.9923 228.6612,167.7913 215.2742,160.0273 C204.8422,153.9773 191.1472,156.5803 183.6992,165.2163 C181.1112,168.2173 177.2562,169.8253 173.3092,169.4723 Z M176.8539,114.9049 L163.4479,133.7309 C161.7279,136.1459 158.9719,137.4429 156.0089,137.5579 C153.5339,137.6539 151.0549,138.7229 148.9309,140.5869 C145.5939,143.5159 144.2509,148.2979 145.6119,152.5249 C147.9259,159.7059 156.0029,162.5989 162.1969,159.0899 C166.2789,156.7759 168.6649,151.6109 168.0699,146.8539 C168.2939,143.4649 168.4749,142.6029 170.9769,139.8609 L188.4009,123.5649 C191.0619,121.0749 194.7339,120.1149 198.3309,120.6979 C205.3979,121.8429 213.0079,120.0049 219.1609,114.6049 C226.6729,108.0129 229.4919,97.2289 226.2149,87.7869 C220.8779,72.4059 203.3699,66.2879 189.9049,73.9179 C179.4139,79.8639 174.7409,92.9979 178.4309,103.7879 C179.7129,107.5379 179.1529,111.6769 176.8539,114.9049 Z M131.3054,84.4744 L141.0744,105.4194 C142.3274,108.1064 142.0974,111.1434 140.7364,113.7784 C139.6004,115.9794 139.3074,118.6624 139.8824,121.4294 C140.7844,125.7774 144.2834,129.3034 148.6314,130.2024 C156.0204,131.7304 162.5204,126.1294 162.5204,119.0104 C162.5204,114.3194 159.2024,109.6964 154.7704,107.8694 C151.9324,106.0034 151.2724,105.4194 150.1194,101.8914 L144.5324,78.6984 C143.6794,75.1554 144.6534,71.4874 146.9344,68.6454 C151.4144,63.0614 153.5674,55.5344 151.9034,47.5194 C149.8714,37.7334 141.8794,29.9644 132.0494,28.1594 C116.0364,25.2194 102.0814,37.4354 102.0814,52.9114 C102.0814,64.9704 111.2044,75.5114 122.4114,77.6214 C126.3064,78.3554 129.6304,80.8824 131.3054,84.4744 Z M82.3457,108.7757 L105.3647,110.8337 C108.3187,111.0977 110.8297,112.8207 112.4267,115.3187 C113.7597,117.4067 115.9347,119.0057 118.6167,119.8967 C122.8297,121.2967 127.6357,120.0397 130.5957,116.7297 C135.6237,111.1047 134.0397,102.6717 127.8817,99.1007 C123.8227,96.7467 118.1597,97.2967 114.3557,100.2137 C111.3177,101.7327 110.4817,102.0117 106.8517,101.2387 L83.9847,94.4357 C80.4917,93.3967 77.8077,90.7137 76.4937,87.3147 C73.9117,80.6377 68.4797,74.9987 60.7117,72.4167 C51.2277,69.2657 40.4967,72.2817 34.0037,79.8797 C23.4267,92.2557 26.9937,110.4567 40.3807,118.2207 C50.8127,124.2707 64.5077,121.6677 71.9557,113.0317 C74.5437,110.0307 78.3987,108.4227 82.3457,108.7757 Z M79.0083,162.9285 L92.4143,144.1025 C94.1343,141.6875 96.8903,140.3905 99.8533,140.2755 C102.3283,140.1795 104.8073,139.1105 106.9313,137.2465 C110.2683,134.3175 111.6113,129.5355 110.2503,125.3085 C107.9363,118.1275 99.8593,115.2345 93.6653,118.7435 C89.5833,121.0575 87.1973,126.2225 87.7923,130.9795 C87.5683,134.3685 87.3873,135.2305 84.8853,137.9725 L67.4613,154.2685 C64.8003,156.7585 61.1283,157.7185 57.5313,157.1355 C50.4643,155.9905 42.8543,157.8285 36.7013,163.2285 C29.1893,169.8205 26.3703,180.6045 29.6473,190.0465 C34.9843,205.4275 52.4923,211.5455 65.9573,203.9155 C76.4483,197.9695 81.1213,184.8355 77.4313,174.0455 C76.1493,170.2955 76.7093,166.1565 79.0083,162.9285 Z" fill="#1874BD"></path>
	</g>
</svg>

<svg width="256" height="278" xmlns="http://www.w3.org/2000/svg" preserveAspectRatio="xMidYMid"><path d="M228.129 133.736c14.873-9.187 24.178-26.505 21.632-45.782-2.675-20.258-18.87-36.661-39.09-39.603-9.853-1.434-18.526.19-26.636 3.992-1.733.811-3.392 2.97-7.367 1.57-3.847-1.354-3.425-6.094-3.485-6.774-2.191-24.915-24.062-44.181-49.973-42.16-20.225 1.577-37.351 16.605-41.64 36.434a46.435 46.435 0 00-1.057 9.526c-.025 3.547-3.793 5.724-6.887 3.989-8.672-4.861-19.053-7.025-30.041-5.304C23.563 52.758 7.665 69.085 5.029 89.18c-2.55 19.438 6.939 36.914 22.044 46.036a5.221 5.221 0 01.015 9c-14.367 8.75-23.611 25.07-22.16 43.43 1.73 21.916 19.128 39.923 40.977 42.357 10.307 1.149 20.007-1.103 28.168-5.755 3.499-1.995 7.796.572 7.924 4.597.089 2.814.446 5.69 1.114 8.614 4.817 21.079 23.912 36.505 45.534 36.394 25.527-.132 46.18-20.867 46.18-46.425v-.117c-.01-3.88 4.029-6.517 7.408-4.607 8.173 4.623 17.877 6.841 28.186 5.653 21.786-2.51 39.089-20.499 40.805-42.362 1.468-18.702-8.161-35.288-22.996-43.904-3.208-1.863-3.256-6.406-.1-8.356" fill="#FFF"/><path d="M126.983.686c-1.438 0-2.9.057-4.341.17-23.695 1.848-43.76 19.4-48.795 42.68a55.863 55.863 0 00-.541 2.866 54.3 54.3 0 00-18.943-3.419c-2.875 0-5.794.228-8.675.68C22.164 47.347 3.568 66.423.468 90.05c-2.504 19.086 5.165 37.858 19.816 49.664-13.861 11.2-21.401 28.474-19.966 46.631 2.046 25.888 22.244 46.762 48.028 49.636 2.05.228 4.127.344 6.172.344a54.27 54.27 0 0020.227-3.916c.17 1.016.372 2.028.6 3.033C80.983 260.102 103.293 278 128.394 278h.274c27.264-.142 49.88-20.535 53.565-46.82a54.266 54.266 0 0019.392 3.59c2.113 0 4.258-.124 6.377-.368 25.687-2.959 45.8-23.837 47.826-49.642 1.446-18.427-6.244-35.784-20.387-46.949 14.079-11.849 21.396-30.29 18.933-48.943-3.153-23.875-22.002-42.972-45.838-46.439a56.47 56.47 0 00-8.111-.598c-6.842 0-13.372 1.271-19.864 3.876-4.443-25.965-26.726-45.02-53.577-45.02m0 9.951c23.205 0 42.255 17.793 44.249 40.48.058.651-.345 5.186 3.335 6.482.893.314 1.663.441 2.34.441 2.212 0 3.44-1.349 4.709-1.944 5.876-2.754 12.058-4.314 18.808-4.314 2.165 0 4.389.161 6.678.494 19.348 2.815 34.844 18.511 37.404 37.894 2.436 18.445-6.468 35.015-20.7 43.806-3.02 1.866-2.974 6.213.096 7.996 14.195 8.243 23.408 24.113 22.004 42.01-1.642 20.918-18.2 38.131-39.044 40.532a45.634 45.634 0 01-5.238.303 44.004 44.004 0 01-21.732-5.71 4.582 4.582 0 00-2.268-.61c-2.533 0-4.827 2.154-4.82 5.017v.11c0 24.456-19.761 44.296-44.187 44.422h-.224c-20.596 0-38.752-14.727-43.345-34.823a43.066 43.066 0 01-1.066-8.242c-.093-2.936-2.503-5.06-5.127-5.06-.82 0-1.658.206-2.455.66a44.032 44.032 0 01-21.882 5.791c-1.67 0-3.361-.093-5.07-.283-20.906-2.33-37.552-19.559-39.21-40.529-1.387-17.567 7.458-33.184 21.205-41.555a4.996 4.996 0 00-.014-8.61c-14.453-8.73-23.533-25.453-21.093-44.05 2.523-19.228 17.734-34.85 36.892-37.85a46.08 46.08 0 017.135-.56 44.045 44.045 0 0121.61 5.635 4.4 4.4 0 006.589-3.817 44.477 44.477 0 011.013-9.115c4.102-18.972 20.49-33.352 39.84-34.86a45.62 45.62 0 013.568-.14" fill="#CCC"/><path d="M124.35 193.359l-9.77-20.945c-1.252-2.687-1.022-5.724.338-8.359 1.136-2.201 1.43-4.884.854-7.651-.901-4.348-4.4-7.874-8.749-8.773-7.388-1.528-13.888 4.073-13.888 11.192 0 4.691 3.317 9.314 7.75 11.141 2.837 1.866 3.497 2.45 4.65 5.978l5.588 23.193c.852 3.543-.122 7.211-2.403 10.053-4.48 5.584-6.632 13.111-4.969 21.126 2.032 9.786 10.024 17.555 19.855 19.36 16.013 2.94 29.968-9.276 29.968-24.752 0-12.059-9.124-22.6-20.33-24.71-3.895-.734-7.22-3.261-8.894-6.853zm48.96-23.887l-23.02-2.058c-2.954-.264-5.465-1.987-7.062-4.485-1.333-2.088-3.508-3.687-6.19-4.578-4.213-1.4-9.019-.143-11.979 3.167-5.028 5.625-3.444 14.058 2.714 17.63 4.06 2.353 9.722 1.803 13.526-1.114 3.038-1.519 3.874-1.798 7.504-1.025l22.867 6.803c3.493 1.04 6.177 3.722 7.491 7.121 2.582 6.677 8.014 12.316 15.782 14.898 9.484 3.151 20.215.135 26.708-7.463 10.577-12.376 7.01-30.577-6.377-38.34-10.432-6.05-24.127-3.448-31.575 5.188-2.588 3.001-6.443 4.61-10.39 4.256zm3.544-54.567l-13.406 18.826c-1.72 2.415-4.476 3.712-7.44 3.827-2.474.096-4.953 1.165-7.077 3.029-3.337 2.929-4.68 7.71-3.32 11.938 2.315 7.18 10.392 10.074 16.586 6.565 4.082-2.314 6.468-7.48 5.873-12.236.224-3.39.405-4.251 2.907-6.993l17.424-16.296c2.66-2.49 6.333-3.45 9.93-2.867 7.067 1.145 14.677-.693 20.83-6.093 7.512-6.592 10.33-17.376 7.054-26.818-5.337-15.381-22.845-21.5-36.31-13.87-10.491 5.947-15.164 19.08-11.474 29.87 1.282 3.75.722 7.89-1.577 11.118zm-45.549-30.43l9.77 20.944c1.252 2.687 1.022 5.724-.339 8.36-1.136 2.2-1.429 4.883-.854 7.65.902 4.348 4.401 7.874 8.75 8.773 7.388 1.528 13.888-4.073 13.888-11.192 0-4.69-3.318-9.314-7.75-11.14-2.838-1.867-3.498-2.45-4.65-5.979l-5.588-23.193c-.853-3.543.121-7.21 2.402-10.053 4.48-5.584 6.633-13.11 4.97-21.126-2.033-9.786-10.025-17.555-19.855-19.36-16.013-2.94-29.968 9.276-29.968 24.752 0 12.06 9.123 22.6 20.33 24.71 3.895.734 7.22 3.261 8.894 6.853zm-48.96 24.3l23.02 2.059c2.954.264 5.465 1.987 7.062 4.485 1.333 2.088 3.508 3.687 6.19 4.578 4.213 1.4 9.019.143 11.979-3.167 5.028-5.625 3.444-14.058-2.714-17.63-4.06-2.353-9.722-1.803-13.526 1.114-3.038 1.519-3.874 1.798-7.504 1.025l-22.867-6.803c-3.493-1.04-6.177-3.722-7.491-7.121-2.582-6.677-8.014-12.316-15.782-14.898-9.484-3.151-20.215-.135-26.708 7.463-10.577 12.376-7.01 30.577 6.377 38.34 10.432 6.05 24.127 3.448 31.575-5.188 2.588-3.001 6.443-4.61 10.39-4.256zm-3.337 54.154l13.406-18.827c1.72-2.415 4.476-3.712 7.44-3.827 2.474-.096 4.953-1.165 7.077-3.029 3.337-2.929 4.68-7.71 3.32-11.938-2.315-7.18-10.392-10.074-16.586-6.565-4.082 2.315-6.468 7.48-5.873 12.237-.224 3.389-.405 4.25-2.907 6.993l-17.424 16.295c-2.66 2.49-6.333 3.45-9.93 2.868-7.067-1.145-14.677.692-20.83 6.093-7.512 6.591-10.33 17.375-7.054 26.817 5.337 15.382 22.845 21.5 36.31 13.87 10.491-5.946 15.164-19.08 11.474-29.87-1.282-3.75-.722-7.89 1.577-11.117z" fill="#1874BD"/></svg>
